packages/icons/src/components/ProductIcon/assets/mailbox.svg

<svg width="64" height="64" viewBox="0 0 64 64" fill="none" xmlns="http://www.w3.org/2000/svg">
<path d="M0 16C0 7.16344 7.16344 0 16 0H48C56.8366 0 64 7.16344 64 16V48C64 56.8366 56.8366 64 48 64H16C7.16344 64 0 56.8366 0 48V16Z" fill="#F1EEFC" class="fillWeak"/>
<path fill-rule="evenodd" clip-rule="evenodd" d="M48 2H16C8.26801 2 2 8.26801 2 16V48C2 55.732 8.26801 62 16 62H48C55.732 62 62 55.732 62 48V16C62 8.26801 55.732 2 48 2ZM16 0C7.16344 0 0 7.16344 0 16V48C0 56.8366 7.16344 64 16 64H48C56.8366 64 64 56.8366 64 48V16C64 7.16344 56.8366 0 48 0H16Z" fill="#F1EEFC" class="fillWeak"/>
<path fill-rule="evenodd" clip-rule="evenodd" d="M53.8574 35.4844C53.8629 35.4935 53.8669 35.5035 53.8721 35.5127C53.8773 35.522 53.8818 35.5316 53.8867 35.541C53.8948 35.5566 53.903 35.572 53.9102 35.5879C53.9199 35.6093 53.9283 35.6312 53.9365 35.6533C53.9396 35.6616 53.9435 35.6694 53.9463 35.6777C53.9526 35.6963 53.9576 35.7153 53.9629 35.7344C53.9675 35.751 53.9719 35.7675 53.9756 35.7842C53.9783 35.7964 53.9802 35.8089 53.9824 35.8213C53.9858 35.8399 53.9889 35.8583 53.9912 35.877C53.9933 35.8938 53.9949 35.9107 53.9961 35.9277C53.9973 35.945 53.9987 35.9622 53.999 35.9795C53.9992 35.9863 54 35.9931 54 36V49C54 49.5523 53.5523 50 53 50H11C10.4477 50 10 49.5523 10 49V36C10 35.9931 10.0008 35.9863 10.001 35.9795C10.0013 35.9622 10.0017 35.945 10.0029 35.9277C10.0041 35.9107 10.0057 35.8938 10.0078 35.877C10.0101 35.8583 10.0133 35.8398 10.0166 35.8213C10.0188 35.8089 10.0207 35.7964 10.0234 35.7842C10.0271 35.7675 10.0316 35.751 10.0361 35.7344C10.0414 35.7153 10.0464 35.6963 10.0527 35.6777C10.0555 35.6695 10.0595 35.6616 10.0625 35.6533C10.0707 35.6312 10.0792 35.6093 10.0889 35.5879C10.096 35.572 10.1042 35.5566 10.1123 35.541C10.1172 35.5316 10.1218 35.522 10.127 35.5127C10.1322 35.5033 10.137 35.4937 10.1426 35.4844L14.5 28.2207V32.1084L12.7656 35H22.333L22.4795 35.0107C22.8148 35.0603 23.1067 35.2779 23.2471 35.5938L25.6504 41H38.3496L40.7529 35.5938L40.8223 35.4648C41.0037 35.1783 41.3211 35 41.667 35H51.2344L49.5 32.1084V28.2207L53.8574 35.4844ZM12 48H52V37H42.3174L39.9141 42.4062C39.7536 42.7674 39.3952 43 39 43H25C24.6048 43 24.2464 42.7674 24.0859 42.4062L21.6826 37H12V48Z" fill="#A060F6" class="fillStrong"/>
<path fill-rule="evenodd" clip-rule="evenodd" d="M43.083 12C44.5558 12 45.75 13.1942 45.75 14.667V19H46.833C48.3058 19 49.5 20.1942 49.5 21.667V35H47.5V22.5645L34.0879 32.5283C32.8487 33.4488 31.1523 33.4489 29.9131 32.5283L16.5 22.5635V35H14.5V21.667C14.5 20.1942 15.6942 19 17.167 19H18.25V14.667C18.25 13.1942 19.4442 12 20.917 12H43.083ZM31.1055 30.9229C31.6365 31.3173 32.3635 31.3172 32.8945 30.9229L46.252 21H17.748L31.1055 30.9229ZM20.25 19H25.0518L20.25 15.4326V19ZM28.4062 19H35.5977L42.3281 14H21.6748L28.4062 19ZM38.9512 19H43.75V15.4355L38.9512 19Z" fill="#521094" class="fill"/>
</svg>

<svg xmlns="http://www.w3.org/2000/svg" width="64" height="64" fill="none" viewBox="0 0 64 64">
    <path fill="#f1eefc" d="M0 16C0 7.163 7.163 0 16 0h32c8.837 0 16 7.163 16 16v32c0 8.837-7.163 16-16 16H16C7.163 64 0 56.837 0 48z" class="fillWeak"/>
    <path fill="#f1eefc" fill-rule="evenodd" d="M48 2H16C8.268 2 2 8.268 2 16v32c0 7.732 6.268 14 14 14h32c7.732 0 14-6.268 14-14V16c0-7.732-6.268-14-14-14M16 0C7.163 0 0 7.163 0 16v32c0 8.837 7.163 16 16 16h32c8.837 0 16-7.163 16-16V16c0-8.837-7.163-16-16-16z" class="fillWeak" clip-rule="evenodd"/>
    <path fill="#a060f6" fill-rule="evenodd" d="m53.857 35.484.015.029.015.028.023.047.027.065.01.025.016.056.013.05.006.037a1 1 0 0 1 .014.107l.003.052L54 36v13a1 1 0 0 1-1 1H11a1 1 0 0 1-1-1V36l.001-.02a1 1 0 0 1 .016-.159l.006-.037.013-.05q.007-.029.017-.056l.01-.025q.011-.033.026-.065l.023-.047.015-.028.016-.029 4.357-7.263v3.887L12.766 35h9.567l.147.01a1 1 0 0 1 .767.584L25.65 41h12.7l2.403-5.406.07-.13a1 1 0 0 1 .844-.464h9.567L49.5 32.108v-3.887zM12 48h40V37h-9.683l-2.403 5.406A1 1 0 0 1 39 43H25a1 1 0 0 1-.914-.594L21.683 37H12z" class="fillStrong" clip-rule="evenodd"/>
    <path fill="#521094" fill-rule="evenodd" d="M43.083 12a2.667 2.667 0 0 1 2.667 2.667V19h1.083a2.667 2.667 0 0 1 2.667 2.667V35h-2V22.564l-13.412 9.964a3.5 3.5 0 0 1-4.175 0L16.5 22.564V35h-2V21.667A2.667 2.667 0 0 1 17.167 19h1.083v-4.333A2.667 2.667 0 0 1 20.917 12zM31.106 30.923a1.5 1.5 0 0 0 1.788 0L46.253 21H17.748zM20.25 19h4.802l-4.802-3.567zm8.156 0h7.192l6.73-5H21.675zm10.545 0h4.799v-3.565z" class="fill" clip-rule="evenodd"/>
</svg>
